X: 11131
T: FOOT IT FEATLY.
C: John Turnbull.
P: Copyright.
Q: "Reel."
%R: reel
B: W. Hamilton "Universal Tune-Book" Vol. 1 Glasgow 1844 p.113 #1
S: http://imslp.org/wiki/Hamilton's_Universal_Tune-Book_(Various)
Z: 2016 John Chambers <jc:trillian.mit.edu>
M: C
L: 1/8
K: A
% - - - - - - - - - - - - - - - - - - - - - - - - -
e |\
a2AB cde^f | g2d>c BGGe |\
a2AB cde^f | gede cAA :| B |\
cAeA aAeA | Bgd>c BGGB |
cAeA aAeA | Bgd>B cAAB |\
cAeA aAeA | Bgd>c BGGB |\
ceAc Bdg^f | gede cAA |]
% - - - - - - - - - - - - - - - - - - - - - - - - -

%%sep 1 1 500
%%sep 1 1 500

